X:1
T: Miss Grace Hay's Reel
C:R. Mackintosh
R:Jig
Q: 180
K:C
M:6/8
L:1/8
|:D|GFG DEF|GFG EFG|AGA FGA|Bcd efg|
GFG DEF|GFG EFG|AcB AGF|G3 G2:|
G|:Bcd GBd|gfe dBG|ABc EFG|ABG FED|
|1Bcd GBd|gfe dBG|AcB AGF|G3 G2c:|
|2dBG ecA|fdB gfe|dBG AFD|G3 G2||
